X: 2107
T: THROUGH THE WOOD OF FAVIE
C:
Q: "Reel."
R: Reel.
%R: reel
B: James Kerr "Merry Melodies" v.2 p.14 #107
Z: 2016 John Chambers <jc:trillian.mit.edu>
M: C
L: 1/8
K: G
ue |\
dGBG ABce | dGBG dGBG |\
ceBd ABce | dBgB d3 :|\
ue |\
dBgB ABce | dBgB bBgB |\
dBgB ABce | dBgB d3 |]

%%sep 1 1 500
%%sep 1 1 500

